X: 3723
T: Bimíd Ag Ól
R: jig
M: 6/8
K: Gmajor
|:DGG AB2|cBc d2A|DGG B2d|cAG AGF|
DGG AB2|cBc def|gbg afd|1 cAF G2A:|2 cAF G2 D||
|:GBd g3|gfd f3|GBd g3|gfd cAF|
GBd g3|gag f2g|abg afd|cAF G2D:|
|:E/F/GA A2c|BAG cAG|E/F/GA ded|cAF G2 D|
E/F/GA cAG|Ade f3|gag fed|1 cAF G2 D:|2 cAF G3||

